X: 13846
T: Four Whiskies In One Hour
R: mazurka
M: 3/4
K: Gmajor
G|:d^c=c B_BA|G2B DG2|F2Af=fe|d2gBd2|
d^c=c B_BA|G2B DG2|F2A def|e=f^f g2G:|
|:FED _E=EF|G2D BG2|F2Ac2e|dBGD2G|
FED _E=EF|G2D BG2|F2A def|1 e=f^fg2G:|2 e=f^fg3||

